src/images/single-assets/baseQI.svg

<svg width="32" height="32" viewBox="0 0 32 32" fill="none" xmlns="http://www.w3.org/2000/svg">
<g clip-path="url(#clip0_468_407795)">
<path d="M16 32C24.8366 32 32 24.8366 32 16C32 7.16345 24.8366 0 16 0C7.16345 0 0 7.16345 0 16C0 24.8366 7.16345 32 16 32Z" fill="#F87171"/>
<path d="M15.9387 12.1927C15.5849 11.8776 14.8834 11.4431 13.6661 11.4488C12.4489 11.4545 12.6478 12.0686 12.6478 12.0686C12.6478 12.0686 12.6229 12.5697 13.4179 12.5853C14.213 12.6008 15.0653 12.6317 15.7568 12.8851C16.4483 13.1385 16.293 12.5073 15.9387 12.1927Z" fill="black"/>
<path d="M13.0612 13.3371C12.9881 13.3803 12.9693 13.5017 13.0542 13.5171C13.5349 13.6028 14.2953 13.7587 15.1436 13.6248C15.224 13.6121 15.2119 13.5048 15.1538 13.4492C14.8529 13.1611 14.0447 12.7572 13.0612 13.3371Z" fill="black"/>
<path d="M23.0642 21.396C23.0531 21.3806 23.0379 21.3684 23.0202 21.361C23.0026 21.3536 22.9831 21.3511 22.9641 21.3538C22.945 21.3565 22.9272 21.3644 22.9124 21.3764C22.8977 21.3884 22.8865 21.4042 22.8804 21.422C22.3857 22.8614 21.9806 22.5088 21.7934 22.1993C21.7284 22.0899 21.6799 21.972 21.6494 21.8491C21.1772 20.0103 21.6096 18.3167 21.6096 18.3167C21.8666 19.0993 22.5406 19.3314 22.8859 19.3992C22.9056 19.4032 22.9259 19.4016 22.9447 19.3945C22.9634 19.3875 22.9796 19.3754 22.9917 19.3598C23.0036 19.344 23.0108 19.3252 23.0121 19.3057C23.0136 19.2861 23.0094 19.2665 22.9999 19.2493C21.6769 16.7118 22.4591 15.6365 22.4591 15.6365C22.6868 15.8842 23.0621 15.9064 23.2985 15.8935C23.3185 15.8924 23.3377 15.8858 23.354 15.8745C23.3702 15.8632 23.3829 15.8476 23.3904 15.8296C23.398 15.8115 23.4004 15.7918 23.397 15.7725C23.3937 15.7533 23.3847 15.7353 23.3715 15.7208C22.4128 14.685 22.3399 14.3337 22.3026 12.5795C22.2821 11.6073 21.9331 11.0961 21.6086 10.8298C21.2374 10.5254 20.9411 10.1377 20.779 9.69032C19.4856 6.13217 17.0655 5.66199 14.8198 5.79513C12.0319 5.96065 10.5475 8.04888 9.84284 9.0894C9.09744 10.1896 8.51656 11.8163 8.55578 12.3141C8.595 12.8118 9.06436 12.7339 9.06436 13.3093C9.06436 13.8848 8.15566 14.3633 8.51289 15.981C8.67067 16.6938 9.30945 17.2282 9.02208 18.8564C8.50829 21.7828 10.8002 25.3386 11.3713 25.869C11.4406 25.9328 11.5622 25.8813 11.5496 25.7889C11.4605 25.1358 11.591 24.2296 11.591 24.2296C12.7393 26.6384 15.9518 26.1916 16.9579 25.985C16.9793 25.9807 16.9987 25.97 17.0136 25.9545C17.0285 25.939 17.0382 25.9193 17.0412 25.8982C17.0443 25.8771 17.0405 25.8556 17.0306 25.8367C17.0207 25.8177 17.0051 25.8022 16.9858 25.7923C15.9699 25.2641 15.7377 24.1913 15.7377 24.1913C16.7487 24.6596 17.3964 24.5811 17.7086 24.4806C17.7276 24.4744 17.7443 24.4631 17.757 24.4479C17.7696 24.4328 17.7777 24.4144 17.78 24.3949C17.7825 24.3755 17.7792 24.3557 17.7706 24.3381C17.762 24.3204 17.7485 24.3055 17.7315 24.295C17.427 24.1079 16.9629 23.3355 16.6118 22.5795C16.4676 22.2675 16.4164 21.9221 16.4643 21.583C16.5121 21.2438 16.6569 20.9249 16.882 20.6628C17.2928 20.1831 17.8317 19.5134 18.4445 18.8019C18.5726 18.6519 18.7508 18.7983 18.8183 18.9608C19.7134 21.1542 20.8779 22.8077 21.6807 23.2635C22.2627 23.6153 22.9003 23.6785 23.1868 23.4573C23.9766 22.8476 23.3504 21.796 23.0642 21.396ZM13.3731 19.3546C12.4129 19.4112 12.6317 18.1899 11.9265 18.2198C11.171 18.2528 11.3974 19.1841 10.8906 19.2408C10.3839 19.2975 10.443 17.8733 10.7987 17.7079C11.3591 17.4483 12.0153 17.3859 12.5407 17.4039C13.1632 17.4249 13.7579 17.4012 14.037 17.9871C14.3676 18.6783 14.3329 19.2994 13.3731 19.3546ZM19.445 10.6268C18.1685 11.3692 18.0933 11.7363 17.9105 13.0419C17.8701 13.3288 17.829 13.6646 17.9632 13.8545C18.2662 14.2829 18.8425 14.6002 18.6843 15.3238C18.3075 17.0458 17.3139 19.0648 15.9812 19.6958C15.8207 19.7717 15.6369 19.6181 15.5996 19.4477C15.451 18.7653 15.0974 17.5245 15.0018 17.1194C14.5272 14.7988 12.2656 14.7667 12.2022 15.2104C12.1835 15.3424 12.6603 15.5163 12.9629 15.6128C13.2407 15.7028 13.2503 16.0908 12.9736 16.1826C12.901 16.2052 12.8255 16.2171 12.7493 16.2179C12.1902 16.1805 11.481 16.223 11.1611 16.2458C11.0541 16.2537 10.9479 16.2223 10.8633 16.1577C10.7786 16.0929 10.7217 15.9998 10.7034 15.8962C10.5784 15.1859 10.7993 14.9312 11.0665 14.2566C11.1994 13.9208 11.3701 13.2437 11.4292 12.8964C11.4599 12.7102 11.4467 12.4865 11.4268 12.3189C11.4026 12.1207 11.3931 11.9211 11.3983 11.7216C11.4173 11.0778 11.4825 10.5521 11.9834 10.5521C12.8858 10.5521 14.795 10.5548 15.0974 10.1206C15.4145 9.66602 13.6448 10.1068 11.7432 10.0468C11.7061 10.0456 11.6706 10.0312 11.6435 10.0063C11.6163 9.98132 11.5994 9.94757 11.5959 9.91132C11.5959 9.89992 11.5937 9.88882 11.5925 9.87743C11.5896 9.84494 11.5937 9.81222 11.6043 9.78131C11.6149 9.7504 11.632 9.72197 11.6543 9.6978C11.6767 9.67363 11.7039 9.65423 11.7343 9.64081C11.7647 9.6274 11.7976 9.62027 11.8309 9.61985C12.8464 9.60755 13.6192 9.53859 13.8223 9.24892C14.0288 8.95266 13.0025 9.0855 11.8391 9.09599C11.6902 9.09599 11.5671 9.09389 11.5747 8.94847V8.94367C11.5779 8.88596 11.6026 8.83138 11.6442 8.79035C11.6857 8.74932 11.7413 8.72469 11.8002 8.72117C12.4846 8.67709 12.7764 8.62611 12.8051 8.41201C12.8339 8.19791 12.7347 8.2195 11.9779 8.26208C11.8134 8.27108 11.8606 8.14904 11.954 8.01559C12.1902 7.67525 13.2463 6.69351 15.5829 6.76517C19.586 6.88992 19.4595 9.66483 19.5821 10.3389C19.5919 10.3948 19.5841 10.4524 19.5596 10.5038C19.5352 10.5553 19.4951 10.5982 19.445 10.6268Z" fill="black"/>
</g>
<defs>
<clipPath id="clip0_468_407795">
<rect width="32" height="32" fill="white"/>
</clipPath>
</defs>
</svg>

<svg xmlns="http://www.w3.org/2000/svg" width="32" height="32" fill="none"><g clip-path="url(#a)"><path fill="#F87171" d="M16 32c8.837 0 16-7.163 16-16S24.837 0 16 0 0 7.163 0 16s7.163 16 16 16"/><path fill="#000" d="M15.939 12.193c-.354-.315-1.056-.75-2.273-.744-1.217.005-1.018.62-1.018.62s-.025.5.77.516 1.647.047 2.339.3c.691.254.536-.378.182-.692M13.061 13.337c-.073.043-.092.165-.007.18.48.086 1.241.242 2.09.108.08-.013.068-.12.01-.176-.301-.288-1.11-.692-2.093-.112"/><path fill="#000" d="M23.064 21.396a.1.1 0 0 0-.1-.042.11.11 0 0 0-.084.068c-.494 1.44-.9 1.087-1.087.777a1.3 1.3 0 0 1-.144-.35c-.472-1.839-.04-3.532-.04-3.532.258.782.932 1.014 1.277 1.082a.11.11 0 0 0 .106-.04.1.1 0 0 0 .008-.11c-1.323-2.537-.54-3.612-.54-3.612.227.247.602.27.838.256a.1.1 0 0 0 .056-.019.1.1 0 0 0 .043-.101.1.1 0 0 0-.025-.052c-.96-1.036-1.032-1.387-1.07-3.142-.02-.972-.369-1.483-.693-1.75a2.66 2.66 0 0 1-.83-1.139c-1.293-3.558-3.713-4.028-5.96-3.895-2.787.166-4.272 2.254-4.976 3.294-.746 1.1-1.326 2.727-1.287 3.225s.508.42.508.995c0 .576-.908 1.054-.551 2.672.158.713.796 1.247.51 2.875-.515 2.927 1.777 6.483 2.348 7.013.07.064.191.012.179-.08-.09-.653.041-1.56.041-1.56 1.148 2.41 4.36 1.963 5.367 1.756a.1.1 0 0 0 .056-.03.102.102 0 0 0-.028-.163c-1.016-.528-1.248-1.6-1.248-1.6 1.01.468 1.658.39 1.97.289a.1.1 0 0 0 .049-.033.1.1 0 0 0 .014-.11.1.1 0 0 0-.04-.043c-.304-.187-.768-.96-1.12-1.716a1.78 1.78 0 0 1 .271-1.916c.41-.48.95-1.15 1.563-1.861.128-.15.306-.004.373.159.895 2.193 2.06 3.847 2.863 4.303.582.351 1.22.415 1.506.193.79-.61.163-1.661-.123-2.061m-9.69-2.041c-.961.056-.742-1.165-1.447-1.135-.756.033-.53.964-1.036 1.02-.507.058-.448-1.367-.092-1.532.56-.26 1.216-.322 1.742-.304.622.02 1.217-.003 1.496.583.33.691.296 1.312-.664 1.368m6.071-8.728c-1.276.742-1.352 1.11-1.535 2.415-.04.287-.081.623.053.813.303.428.88.745.721 1.469-.377 1.722-1.37 3.74-2.703 4.372-.16.076-.344-.078-.381-.248-.149-.683-.503-1.924-.598-2.329-.475-2.32-2.736-2.352-2.8-1.909-.018.132.458.306.76.403.279.09.288.478.012.57a.8.8 0 0 1-.225.035c-.559-.038-1.268.005-1.588.028a.44.44 0 0 1-.298-.088.42.42 0 0 1-.16-.262c-.125-.71.096-.965.364-1.64.132-.335.303-1.012.362-1.36.03-.186.018-.41-.002-.577a4 4 0 0 1-.029-.597c.02-.644.085-1.17.585-1.17.903 0 2.812.003 3.114-.431.318-.455-1.452-.014-3.354-.074a.16.16 0 0 1-.1-.04.15.15 0 0 1-.047-.096q0-.016-.004-.034a.23.23 0 0 1 .062-.18.24.24 0 0 1 .177-.077c1.015-.012 1.788-.081 1.991-.371.207-.296-.82-.164-1.983-.153-.149 0-.272-.002-.264-.148v-.004a.23.23 0 0 1 .07-.154.24.24 0 0 1 .155-.069c.685-.044.976-.095 1.005-.309s-.07-.193-.827-.15c-.165.01-.117-.113-.024-.246.236-.34 1.292-1.322 3.629-1.25 4.003.124 3.876 2.899 4 3.573a.27.27 0 0 1-.138.288"/></g><defs><clipPath id="a"><path fill="#fff" d="M0 0h32v32H0z"/></clipPath></defs></svg>
